X:7758
T:Jackie Coleman's
R:Reel
S:(Seamus Egan)
H:
N:
D:
Z:Adrian Scahill
M:4/4
L:1/8
K:D
AFF2 AFEF|DFF2 A2Bc|dAA2 defg|afed BGG2|\
AFF2 AFEF|DFF2 A2Bc|d2ec defg|afeg fdd2:||\
d2fd Adfd|=c2ec Gcec|d2fd Adfd|=cAGE EDe^c|\
d2fd Adfd|=c2ec g3^c|defg a3f|geag fdec:||


